X: 352
%
U:~=!turn!
T: Lord Seaforth
C:Very old.
O:Scotland
B:Keith Norman MacDonald : "The Skye collection of the best reels & strathspeys extant" : 1887
Z:Ralph Palmer
R:Strathspey
M:C
L:1/8
K:G
B | G<DD>E G>AB>G | {/d}c>AB>G E2 ~E>A | G<DD>E G>AB<e | d>BA<B G2 G :|
g | (e/f/g) d>g B>gd<B | {/d}c>AB<G E2 Eg | (e/f/g) d>g B>gd<B | c>Ad<B G2 Gg |
e<gd<b c<aB<g | c>AB>G E2 ~EA | G<DD>E G>AB<e | d<BA>B G2 G |]


